src/images/tech/js.svg

<svg viewBox="0 0 120 120" fill="none" xmlns="http://www.w3.org/2000/svg">
<path d="M7.5 7.5H112.5V112.5H7.5V7.5Z" fill="#F5DE19"/>
<path d="M78.0338 89.5312C78.9284 91.3485 80.3183 92.8759 82.0434 93.9375C83.7684 94.9991 85.7584 95.5515 87.7838 95.5313C91.8713 95.5313 94.485 93.4875 94.485 90.6562C94.485 87.2812 91.8 86.0738 87.3 84.105L84.8325 83.0475C77.7075 80.0138 72.9825 76.215 72.9825 68.1825C72.9825 60.7838 78.6075 55.1475 87.4313 55.1475C90.2877 54.9412 93.1416 55.5805 95.637 56.9856C98.1324 58.3907 100.159 60.4994 101.464 63.0488L93.75 67.98C93.2476 66.716 92.3728 65.6345 91.2416 64.879C90.1105 64.1236 88.7764 63.7298 87.4163 63.75C86.8229 63.6906 86.2236 63.7555 85.6567 63.9404C85.0897 64.1254 84.5675 64.4265 84.1234 64.8244C83.6792 65.2224 83.3228 65.7085 83.0769 66.2518C82.831 66.7951 82.7009 67.3837 82.695 67.98C82.695 70.9388 84.5288 72.1388 88.7625 73.98L91.23 75.0375C99.615 78.6338 104.355 82.2975 104.355 90.5363C104.355 99.42 97.3763 104.287 88.005 104.287C84.3537 104.52 80.713 103.691 77.5223 101.901C74.3317 100.11 71.7274 97.4342 70.0238 94.1963L78.0338 89.5312ZM43.1775 90.3863C44.7263 93.135 46.1363 95.46 49.5263 95.46C52.7663 95.46 54.8138 94.1925 54.8138 89.2612V55.71H64.68V89.3925C64.68 99.6075 58.68 104.257 49.9463 104.257C46.8591 104.426 43.7931 103.657 41.1513 102.051C38.5096 100.444 36.4157 98.0761 35.145 95.2575L43.1775 90.3863Z" fill="black"/>
</svg>

<svg viewBox="0 0 120 120" fill="none" xmlns="http://www.w3.org/2000/svg"><path d="M7.5 7.5h105v105H7.5V7.5z" fill="#F5DE19"/><path d="M78.034 89.531a10.747 10.747 0 0 0 9.75 6c4.087 0 6.701-2.044 6.701-4.875 0-3.375-2.685-4.582-7.185-6.551l-2.468-1.058c-7.124-3.033-11.85-6.832-11.85-14.864 0-7.4 5.626-13.036 14.45-13.036a14.583 14.583 0 0 1 14.032 7.902L93.75 67.98a6.709 6.709 0 0 0-6.334-4.23 4.295 4.295 0 0 0-4.721 4.23c0 2.959 1.834 4.159 6.068 6l2.467 1.057c8.385 3.597 13.125 7.26 13.125 15.5 0 8.883-6.979 13.75-16.35 13.75a18.958 18.958 0 0 1-17.981-10.09l8.01-4.666zm-34.857.855c1.55 2.749 2.96 5.074 6.35 5.074 3.24 0 5.287-1.267 5.287-6.199V55.71h9.866v33.682c0 10.216-6 14.865-14.734 14.865a15.319 15.319 0 0 1-14.801-9l8.032-4.87z" fill="#000"/></svg>
